X: 555
T: Bancroft's Descent
B: good tune book
B: tunes
M:6/8
R: jig
Q: 3/8=100
K:Dmajor
V:1 
e|:"D"fdd ~a2g|"D"fag fdd|"A"eAA ~g2f|"A"efd eAA|
 "D"dAA ~d2e|"D"fag fgf|"G"egf efd|1 "A"eAA "D"d2e:|2 "A"eAA "D"dcB||
 "D"Add "A"ceg|"D"fda fdd|"A"EFG "G"Bcd|"A"efd cde|
 "D"dAA "A"cAg|"D"fag fgf|"G"egf efd|"A"eAA "D"dcB||
 "D"Add "A"ceg|"D"fda fdd|"A"EFG "G"Bcd|"A"ecA "(Em)"GFE|
 "D"DFA "G"Bcd|"A"cde "(G)"deg|"D"fag "G"fgf|"A"ecA "D"d3||
% abcbook-tune_id 63dce190ab91084f7817b163
% abcbook-tune_composer_id 
% abcbook-link-0 https://www.youtube.com/watch?v=-gEYjsIYf98
% abcbook-link-title-0 The Kitchen Maid/Bancroft&#39;s Descent/Arthur&#39;s Seat
% abcbook-link-start-at-0 148
% abcbook-boost 0
% abcbook-difficulty 0
% abcbook-tags good tune book
% abcbook-tablature 
% abcbook-transpose 
% abcbook-tuning 
% abcbook-lastupdated 1675423109841
% abcbook-soundfonts 
% abcbook-repeats 1


